X:7285
T:The Road to Skye
O:england
M:6/8
L:1/8
R:Jig
K:A
"D"AGF "A"ECE|"A"Ace "D"f2 e|"A"acc cBc|"D"dFF F3|"D"AGF "A"ECE|"A"Ace "
D"f2 e|
"A"aec "E"BAB|"A"cAG A3:||:"A"Ace Ace|"A"Ace "E"dcB|"A"Ace fga|"E"fee e2
g|
"D"afa "E"geg|"D"fdf "A"ece|"D"dcd "E"Bed|"A"cAG A3:|


